svgs/duotone/vials.svg

<svg xmlns="http://www.w3.org/2000/svg" viewBox="0 0 512 512"><!--! Font Awesome Pro 6.6.0 by @fontawesome - https://fontawesome.com License - https://fontawesome.com/license (Commercial License) Copyright 2024 Fonticons, Inc. --><defs><style>.fa-secondary{opacity:.4}</style></defs><path class="fa-secondary" d="M0 64C0 46.3 14.3 32 32 32l56 0 48 0 56 0c17.7 0 32 14.3 32 32s-14.3 32-32 32l0 304c0 44.2-35.8 80-80 80s-80-35.8-80-80L32 96C14.3 96 0 81.7 0 64zM88 96l0 160 0 144c0 13.3 10.7 24 24 24s24-10.7 24-24l0-144 0-160L88 96zM288 64c0-17.7 14.3-32 32-32l56 0 48 0 56 0c17.7 0 32 14.3 32 32s-14.3 32-32 32l0 304c0 44.2-35.8 80-80 80s-80-35.8-80-80l0-304c-17.7 0-32-14.3-32-32zm88 32l0 160 0 144c0 13.3 10.7 24 24 24s24-10.7 24-24l0-144 0-160-48 0z"/><path class="fa-primary" d="M136 256l-48 0 0 144c0 13.3 10.7 24 24 24s24-10.7 24-24l0-144zm288 0l-48 0 0 144c0 13.3 10.7 24 24 24s24-10.7 24-24l0-144z"/></svg>

<svg xmlns="http://www.w3.org/2000/svg" viewBox="0 0 512 512"><!--! Font Awesome Pro 6.4.0 by @fontawesome - https://fontawesome.com License - https://fontawesome.com/license (Commercial License) Copyright 2023 Fonticons, Inc. --><defs><style>.fa-secondary{opacity:.4}</style></defs><path class="fa-primary" d="M136 256H88V400c0 13.3 10.7 24 24 24s24-10.7 24-24V256zm288 0H376V400c0 13.3 10.7 24 24 24s24-10.7 24-24V256z"/><path class="fa-secondary" d="M0 64C0 46.3 14.3 32 32 32H88h48 56c17.7 0 32 14.3 32 32s-14.3 32-32 32V400c0 44.2-35.8 80-80 80s-80-35.8-80-80L32 96C14.3 96 0 81.7 0 64zM136 96H88V400c0 13.3 10.7 24 24 24s24-10.7 24-24V96zM288 64c0-17.7 14.3-32 32-32h56 48 56c17.7 0 32 14.3 32 32s-14.3 32-32 32V400c0 44.2-35.8 80-80 80s-80-35.8-80-80V96c-17.7 0-32-14.3-32-32zM424 96H376V400c0 13.3 10.7 24 24 24s24-10.7 24-24V96z"/></svg>
